X: 256
T:Rolling in the Barrel
R:reel
S:Mike Rafferty
N:Willie Kelly plays it = "Willie Kelly's reel"
Z:Lesl
M:C|
L:1/8
Q:
K:Edor
D2|:E2FE BEFE|B2AF DEFD|~E2FE BEFE|B2AF FEED|
~E2FE BEFE|B2AF DEFD|~E2FE BEFE|1 B2AF FEED:|2 B2AF FEe2||
|:e2fe befe|d2df ~a2fd|e2fe Befe|dBAF BEEd|
eefe befe|d2df ~a2fd|efge ~f2fe|1 dBAF BEED:|2 dBAF BEED|E6||

